!!!COM: Lassus, Orlandus
!!!CDT: 1532-1594/06/14
!!!OPR: Geistliche Psalmen mit dreyen Stimmen
!!!ONM: 9
!!!OTL@@LA: Confitebor tibi Domine
!!!OTL-incipit@@DE: Ich wil auß gantzem hertzen mein
**kern	**text	**kern	**text	**kern	**text
*staff3	*staff3	*staff2	*staff2	*staff1	*staff1
*Ivox	*	*Ivox	*	*Ivox	*
*I"Bassus	*	*I"Tenor	*	*I"Cantus	*
*I'B	*	*I'T	*	*I'C	*
*clefC4	*	*clefC2	*	*clefG2	*
*k[]	*	*k[]	*	*k[]	*
*d:dor	*	*d:dor	*	*d:dor	*
*M2/1	*	*M2/1	*	*M2/1	*
*met(C|)	*	*met(C|)	*	*met(C|)	*
*MM180	*	*MM180	*	*MM180	*
=1	=1	=1	=1	=1	=1
*xywh-#135:129,25,2752,524	*	*xywh-#79:136,82,2726,556	*	*xywh-#19:70,78,2735,492	*
0r	.	1a	Ich	0r	.
.	.	2a	wil	.	.
.	.	2a	auß	.	.
=2	=2	=2	=2	=2	=2
1r	.	2.d	gan-	2r	.
.	.	.	.	2dd	Ich
.	.	4e	.	.	.
2r	.	4f	.	2dd	wil
.	.	4g	.	.	.
!LO:TX:a:i:t=c.f.	!	!	!	!	!
2d	Ich	2.f	.	2dd	auß
=3	=3	=3	=3	=3	=3
2d	wil	.	.	2.a	gan-
.	.	4e	.	.	.
2d	auß	4f	.	.	.
.	.	4d	.	4b	.
2A	gan-	2e	.	2cc	.
2B	-tzem	2.g	-tzem	2dd	-tzem
=4	=4	=4	=4	=4	=4
2c	her-	.	.	2ee	her-
.	.	4e	.	.	.
2d	-tzen	2f#	.	4a	-tzen
.	.	.	.	4b	.
!! cadence start
0e	mein/	2g	her-	1cc	.
.	.	2.a	-tzen	.	.
=5	=5	=5	=5	=5	=5
.	.	.	.	1b	.
.	.	8g#i	.	.	.
.	.	8f#i	.	.	.
.	.	2g#i	.	.	.
*	*	*xywh-#79:131,613,2724,436	*	*	*
2r	.	1a	mein/	2a	mein/
!! cadence end; ultima=a
2d	dir	.	.	2f	dir
=6	=6	=6	=6	=6	=6
1f	Herr	2r	.	1a	Herr
!	!	!LO:TX:a:i:t=c.f.	!	!	!
.	.	2d	Dir	.	.
*	*	*	*	*xywh-#19:61,547,2748,364	*
1d	preiß	2f	Herr	2.a	preiß
.	.	2f	preiß	.	.
.	.	.	.	4ff	ehr
=7	=7	=7	=7	=7	=7
!! cadence start
2c	ehr	2g	ehr	2ee	be-
2d	be-	2f	be-	2.dd	-reit-
1A	-reit-	1e	-rei-	.	.
.	.	.	.	8cc#i	.
.	.	.	.	8b	.
.	.	.	.	2cc#i	.
=8	=8	=8	=8	=8	=8
0D	-ten/	1d	-ten/	2dd	-ten/
!! cadence end; ultima=d
.	.	.	.	2ff	wil
.	.	1a	wil	2ff	al-
.	.	.	.	2ff	-le
=9	=9	=9	=9	=9	=9
*xywh-#135:127,517,2731,457	*	*	*	*	*
1r	.	2a	al-	4cc	wun-
.	.	.	.	4dd	.
.	.	2a	-le	4ee	.
.	.	.	.	4cc	.
2r	.	4d	wun-	1.ff	.
.	.	4e	.	.	.
!LO:TX:a:i:t=c.f.	!	!	!	!	!
2d	wil	4f	.	.	.
.	.	4g	.	.	.
=10	=10	=10	=10	=10	=10
2d	al-	2.a	.	.	.
2d	-le	.	.	2ff	-der-
.	.	4a	-der-	.	.
2A	wun-	2cc	-wer-	2ee	-wer-
!! cadence start
2B	-der-	2.b	-cke	2dd	-cke
=11	=11	=11	=11	=11	=11
2c	-wer-	.	.	2ee	dein/
.	.	4a	.	.	.
2d	-cke	2.a	.	4dd	.
.	.	.	.	4cc	.
*	*	*	*	*xywh-#19:61,882,2744,366	*
1e	dein/	.	.	2b	.
.	.	8g#i	.	.	.
.	.	8f#i	.	.	.
.	.	2g#i	.	2b	mit
=12	=12	=12	=12	=12	=12
2r	.	1a	dein/	1cc	ho-
!! cadence end; ultima=a
2A	mit	.	.	.	.
*	*	*xywh-#79:129,1018,2719,439	*	*	*
2B-	ho-	2r	.	2f	-hem
!	!	!LO:TX:a:i:t=c.f.	!	!	!
2G	-hem	2d	mit	2.b-	fleiß
=13	=13	=13	=13	=13	=13
2d	fleiß	2.f	ho-	.	.
.	.	.	.	4a	.
2d	ver-	.	.	2ff	.
.	.	4f	-hem	.	.
!! cadence start
2c	-breit-	2g	fleiß	2ee	ver-
2d	-ten/	2f	ver-	2.dd	-breit-
=14	=14	=14	=14	=14	=14
2r	.	1e	-brai-	.	.
.	.	.	.	8cc#i	.
.	.	.	.	8b	.
2A	in	.	.	2cc#i	.
2B-	dir	1d	-ten/	2dd	-ten/
!! cadence end; ultima=d
2B-	wil	.	.	2ff	in
=15	=15	=15	=15	=15	=15
*xywh-#135:120,927,2722,457	*	*	*	*	*
2.F	ich	1a	in	2ff	dir
.	.	.	.	2cc	wil
4E	.	.	.	.	.
2D	.	2a	dir	1ff	ich
4r	.	2d	wil	.	.
4D	ein-	.	.	.	.
=16	=16	=16	=16	=16	=16
!! cadence start
2E	-brün-	2g	ich	4r	.
.	.	.	.	2ee	ein-
2F	-stig-	2f	ein-	.	.
.	.	.	.	2dd	-brün-
1G	-lich/	2e	-brün-	.	.
.	.	.	.	4.cc	-stig-
.	.	2d	-stig-	.	.
.	.	.	.	16b	.
.	.	.	.	16a	.
.	.	.	.	4b	.
=17	=17	=17	=17	=17	=17
*	*	*	*	*xywh-#19:59,1214,2744,385	*
2r	.	1c	-lich/	2cc	lich/
!! cadence end; ultima=c
2A	O	.	.	4r	.
.	.	.	.	4ee	O
1B	höch-	2r	.	1.gg	höch-
.	.	2d	O	.	.
=18	=18	=18	=18	=18	=18
2c	-ster	2e	höch-	.	.
2d	Gott	2f	-ster	2ff	-ster
2c	er-	2g	Gott	4.ee	Gott
.	.	.	.	8dd	.
!! cadence start
8F	-frew-	2a	er-	8cc	.
8G	.	.	.	8b	.
8A	.	.	.	8cc	.
8B	.	.	.	8dd	.
=19	=19	=19	=19	=19	=19
*	*	*xywh-#79:124,1425,2724,445	*	*	*
8c	.	2g	-frew-	4.ee	.
8d	.	.	.	.	.
8e	.	.	.	.	.
8c	.	.	.	8ee	er-
4d	.	2f	-e	4a	-frew-
4D	-en	.	.	4dd	-en
*xywh-#135:113,1347,2724,446	*	*	*	*	*
2A	mich/	1e	mich/	2cc#	mich/
!! cadence end; ultima=a
2c#	und	.	.	2ee	und
=20	=20	=20	=20	=20	=20
2d	sin-	2r	.	2ff	sin-
2c#	-gen	2e	und	4ee	-gen
.	.	.	.	4a	und
4r	.	2f	sin-	4a	sin-
4d	und	.	.	4a	-gen
!! cadence start
4A	sin-	2e	-gen	2cc	dei-
4cny	-gen	.	.	.	.
=21	=21	=21	=21	=21	=21
*	*	*	*	*xywh-#19:53,1572,2737,351	*
4G	dei-	2d	dei-	2b	-nen
4G	-nem	.	.	.	.
2A	na-	2c	-nem	2.a	na-
1D	-men/	1B	na-	.	.
.	.	.	.	8g#i	.
.	.	.	.	8f#i	.
.	.	.	.	2g#i	.
=22	=22	=22	=22	=22	=22
4r	.	1A	-men/	2a	-men/
!! cadence end; ultima=a
4e	wenn	.	.	.	.
1f	du	.	.	4r	.
.	.	.	.	4a	wenn
.	.	2r	.	2.cc	du
2e	ver-	2A	wenn	.	.
.	.	.	.	4dd	ver-
=23	=23	=23	=23	=23	=23
2A	-jagt	2c	du	2ee	-jagt
2B-	hast	2d	ver-	2dd	hast
2A	mei-	2e	-jagt	2cc#	mei-
2B-X	-ne	2d	hast	2dd	-ne
=24	=24	=24	=24	=24	=24
2F	feind/	2f	mei-	2a	feind/
2D	daß	2f	-ne	4r	.
.	.	.	.	4a	daß
2A	sie	1e	feind/	2cc	sie
2G#	für	.	.	2b	für
=25	=25	=25	=25	=25	=25
*xywh-#135:108,1768,2740,452	*	*	*	*	*
1A	dir	2r	.	1cc	dir
.	.	2e	daß	.	.
*	*	*xywh-#79:117,1831,2729,478	*	*	*
4r	.	2f	sie	1a	ge-
4d	daß	.	.	.	.
2f	sie	2d	für	.	.
=26	=26	=26	=26	=26	=26
*	*	*	*	*xywh-#19:51,1886,2720,397	*
2d	für	2f	dir	2a	-fal-
2c	dir	2g	ge-	2e	-len
2r	.	2a	-fal-	1cc	seind/
2A	ge-	2a	-len	.	.
=27	=27	=27	=27	=27	=27
2A	-fal-	0e	sein/	2r	.
2E	-len	.	.	1gg	und
2c	seind/	.	.	.	.
2c	und	.	.	2ee	um-
=28	=28	=28	=28	=28	=28
2A	um-	2r	.	2cc	-bracht
2F	-bracht	2a	und	4r	.
.	.	.	.	4cc	und
4r	.	2f	um-	2a	um-
2d	und	.	.	.	.
.	.	2d	-bracht	2f	-bracht
2B-	um-	.	.	.	.
=29	=29	=29	=29	=29	=29
!! cadence start
.	.	2g	all	2b-i	all
4G	-bracht	.	.	.	.
4d	all	2f	zu-	4a	zu-
4D	zu-	.	.	2dd	-sa-
1A	-sa-	1e	-sa-	.	.
.	.	.	.	8cc#	.
.	.	.	.	8bny	.
.	.	.	.	2cc#X	.
=30	=30	=30	=30	=30	=30
0Dll	-men.	0dll	-men.	0ddl	men.
!! cadence end; ultima=d
==	==	==	==	==	==
*-	*-	*-	*-	*-	*-
!!!RDF**kern: l = terminal long
!!!RDF**kern: i = editorial accidental
!!!AGN: Psalm; Tricinium
!!!LIB: Ulenberg, Caspar
!!!LIB-CDT: 1548/12/24-1617/02/16
!!!YOR: https://mdz-nbn-resolving.de/details:bsb00075346
!!!YOO: München, Bayerische Staatsbibliothek
!!!URL-scan: https://www.digitale-sammlungen.de/de/view/bsb00075346?page=19 Cantus
!!!URL-scan: https://www.digitale-sammlungen.de/de/view/bsb00075346?page=79 Tenor
!!!URL-scan: https://www.digitale-sammlungen.de/de/view/bsb00075346?page=135 Bassus
!!!IIIF: https://api.digitale-sammlungen.de/iiif/presentation/v2/bsb00075346/manifest
!!!EED: Wolfgang Drescher
!!!END: 2023/02/16
!!!ENC: Wolfgang Drescher
!!!EEV: 2023/02/16
!!!title: @{ONM}. @{OTL} / <i>@{OTL-incipit@@DE}</i>